X:1028
T:The Beard of the Thistle.
M:C
L:1/8
Q:1/4=120
I: :: :: :: ::
Z:Jack Campin * www.campin.me.uk * 2009
K:D
F| D2 d>e f>ed>c|A>FD>F [A,2E2] [A,E]>F|D2 d>e f>ed>c|A<FE>F  D2D:|
g| f>ed>B A>Bd>e|f<ad>f  e2      e>g   |f>ed>B A>gf>e|d<BA>F  D2D:|
A| d2 F>A D>AF>A|D>AF>A  G2      E2    |d2 F>A D>AF>A|G>BE>A TF2D:|
g|Tf2 d>f e<Ac>A|d>fB>e  c2      A=c   |B2 G>B A>dF>A|G>BE>A TF2D:|

